;FLAVOR:Marlin
;TIME:20925
;Filament used: 14.1065m
;Layer height: 0.2
;MINX:52.5
;MINY:77.5
;MINZ:0.2
;MAXX:182.5
;MAXY:157.5
;MAXZ:32
;Generated with Cura_SteamEngine main
M140 S55
M105
M190 S55
M104 S220
M105
M109 S220
M82 ;absolute extrusion mode
; Ender 3 Custom Start G-code
G92 E0 ; Reset Extruder
G28 ; Home all axes
G1 Z2.0 F3000 ; Move Z Axis up little to prevent scratching of Heat Bed
G1 X0.1 Y20 Z0.3 F5000.0 ; Move to start position
G1 X0.1 Y200.0 Z0.3 F1500.0 E15 ; Draw the first line
G1 X0.4 Y200.0 Z0.3 F5000.0 ; Move to side a little
G1 X0.4 Y20 Z0.3 F1500.0 E30 ; Draw the second line
G92 E0 ; Reset Extruder
G1 Z2.0 F3000 ; Move Z Axis up little to prevent scratching of Heat Bed
G1 X5 Y20 Z0.3 F5000.0 ; Move over to prevent blob squish
G92 E0
G92 E0
G1 F2400 E-8
;LAYER_COUNT:160
;LAYER:0
M107
G0 F6000 X57.126 Y79.551 Z0.2
G0 X52.501 Y89.025
;TYPE:SKIRT
G1 F2400 E0
G1 F1200 X52.51 Y88.36 E0.02212
G1 X52.563 Y87.424 E0.0533
G1 X52.695 Y86.495 E0.08451
G1 X52.906 Y85.581 E0.11571
G1 X53.194 Y84.689 E0.14689
G1 X53.557 Y83.824 E0.17809
G1 X53.992 Y82.993 E0.20928
G1 X54.496 Y82.203 E0.24045
G1 X55.066 Y81.458 E0.27165
G1 X55.698 Y80.764 E0.30287
G1 X56.386 Y80.127 E0.33405
G1 X57.126 Y79.551 E0.36524
G1 X57.912 Y79.039 E0.39644
G1 X58.739 Y78.597 E0.42763
G1 X59.601 Y78.227 E0.45883
G1 X60.491 Y77.931 E0.49003
G1 X61.403 Y77.713 E0.52122
G1 X62.33 Y77.572 E0.5524
G1 X63.201 Y77.513 E0.58144
G1 X63.83 Y77.5 E0.60236
G1 X170.951 Y77.501 E4.16522
G1 X171.649 Y77.511 E4.18844
G1 X172.585 Y77.565 E4.21962
G1 X173.513 Y77.697 E4.2508
G1 X174.427 Y77.909 E4.28201
G1 X175.319 Y78.198 E4.31319
G1 X176.184 Y78.561 E4.34439
G1 X177.014 Y78.997 E4.37558
G1 X177.805 Y79.502 E4.40679
G1 X178.549 Y80.073 E4.43798
G1 X179.242 Y80.705 E4.46918
G1 X179.879 Y81.393 E4.50036
G1 X180.454 Y82.134 E4.53156
G1 X180.965 Y82.92 E4.56274
G1 X181.407 Y83.748 E4.59396
G1 X181.776 Y84.61 E4.62514
G1 X182.071 Y85.5 E4.65633
G1 X182.289 Y86.412 E4.68752
G1 X182.429 Y87.34 E4.71873
G1 X182.487 Y88.201 E4.74743
G1 X182.5 Y88.83 E4.76836
G1 X182.499 Y145.9 E6.66652
G1 X182.49 Y146.627 E6.6907
G1 X182.439 Y147.564 E6.72191
G1 X182.307 Y148.492 E6.75308
G1 X182.098 Y149.406 E6.78427
G1 X181.811 Y150.299 E6.81547
G1 X181.449 Y151.165 E6.84668
G1 X181.015 Y151.996 E6.87787
G1 X180.511 Y152.787 E6.90906
G1 X179.942 Y153.532 E6.94024
G1 X179.311 Y154.227 E6.97146
G1 X178.624 Y154.865 E7.00265
G1 X177.885 Y155.442 E7.03383
G1 X177.099 Y155.954 E7.06503
G1 X176.273 Y156.397 E7.0962
G1 X175.411 Y156.769 E7.12743
G1 X174.522 Y157.065 E7.15859
G1 X173.61 Y157.285 E7.1898
G1 X172.683 Y157.426 E7.22098
G1 X171.799 Y157.487 E7.25046
G1 X171.17 Y157.5 E7.27138
G1 X64.065 Y157.499 E10.83371
G1 X63.367 Y157.49 E10.85693
G1 X62.431 Y157.438 E10.88811
G1 X61.502 Y157.306 E10.91931
G1 X60.588 Y157.096 E10.95051
G1 X59.695 Y156.809 E10.9817
G1 X58.83 Y156.446 E11.0129
G1 X57.999 Y156.012 E11.04409
G1 X57.208 Y155.508 E11.07528
G1 X56.463 Y154.938 E11.10648
G1 X55.769 Y154.307 E11.13768
G1 X55.132 Y153.62 E11.16884
G1 X54.555 Y152.88 E11.20005
G1 X54.043 Y152.094 E11.23125
G1 X53.6 Y151.267 E11.26245
G1 X53.229 Y150.406 E11.29363
G1 X52.933 Y149.516 E11.32483
G1 X52.714 Y148.604 E11.35603
G1 X52.573 Y147.677 E11.38721
G1 X52.513 Y146.788 E11.41685
G1 X52.5 Y146.158 E11.43781
G1 X52.501 Y89.025 E13.33806
G0 F6000 X52.901 Y89.031
G1 F1200 X52.91 Y88.366 E13.36018
G1 X52.962 Y87.446 E13.39083
G1 X53.094 Y86.535 E13.42144
G1 X53.305 Y85.639 E13.45206
G1 X53.592 Y84.764 E13.48269
G1 X53.955 Y83.918 E13.51331
G1 X54.389 Y83.106 E13.54393
G1 X54.892 Y82.335 E13.57455
G1 X55.461 Y81.611 E13.60517
G1 X56.089 Y80.939 E13.63577
G1 X56.774 Y80.323 E13.66641
G1 X57.51 Y79.77 E13.69703
G1 X58.291 Y79.282 E13.72766
G1 X59.111 Y78.864 E13.75827
G1 X59.965 Y78.519 E13.7889
G1 X60.845 Y78.249 E13.81952
G1 X61.745 Y78.057 E13.85013
G1 X62.659 Y77.943 E13.88076
G1 X63.212 Y77.913 E13.89918
G1 X63.83 Y77.9 E13.91974
G1 X170.945 Y77.901 E17.4824
G1 X171.643 Y77.911 E17.50562
G1 X172.562 Y77.964 E17.53623
G1 X173.473 Y78.097 E17.56686
G1 X174.369 Y78.308 E17.59747
G1 X175.243 Y78.596 E17.62808
G1 X176.09 Y78.959 E17.65873
G1 X176.901 Y79.394 E17.68934
G1 X177.671 Y79.898 E17.71995
G1 X178.395 Y80.467 E17.75057
G1 X179.067 Y81.097 E17.78121
G1 X179.682 Y81.782 E17.81183
G1 X180.235 Y82.518 E17.84245
G1 X180.722 Y83.299 E17.87306
G1 X181.139 Y84.12 E17.90369
G1 X181.484 Y84.974 E17.93432
G1 X181.753 Y85.854 E17.96493
G1 X181.945 Y86.755 E17.99557
G1 X182.058 Y87.668 E18.02617
G1 X182.087 Y88.212 E18.04428
G1 X182.1 Y88.83 E18.06484
G1 X182.099 Y145.895 E19.96283
G1 X182.09 Y146.622 E19.98702
G1 X182.039 Y147.541 E20.01763
G1 X181.908 Y148.453 E20.04827
G1 X181.698 Y149.349 E20.07888
G1 X181.412 Y150.224 E20.1095
G1 X181.051 Y151.071 E20.14012
G1 X180.617 Y151.883 E20.17075
G1 X180.115 Y152.655 E20.20137
G1 X179.547 Y153.38 E20.23201
G1 X178.919 Y154.053 E20.26262
G1 X178.235 Y154.669 E20.29324
G1 X177.5 Y155.223 E20.32385
G1 X176.72 Y155.712 E20.35447
G1 X175.9 Y156.131 E20.3851
G1 X175.047 Y156.477 E20.41571
G1 X174.167 Y156.748 E20.44634
G1 X173.267 Y156.941 E20.47695
G1 X172.353 Y157.056 E20.50759
G1 X171.788 Y157.087 E20.52641
G1 X171.17 Y157.1 E20.54697
G1 X64.07 Y157.099 E24.10913
G1 X63.372 Y157.09 E24.13235
G1 X62.453 Y157.038 E24.16297
G1 X61.542 Y156.907 E24.19358
G1 X60.646 Y156.697 E24.22419
G1 X59.771 Y156.41 E24.25481
G1 X58.924 Y156.048 E24.28545
G1 X58.112 Y155.614 E24.31607
G1 X57.341 Y155.112 E24.34667
G1 X56.616 Y154.544 E24.37731
G1 X55.943 Y153.915 E24.40795
G1 X55.328 Y153.231 E24.43854
G1 X54.774 Y152.496 E24.46915
G1 X54.286 Y151.715 E24.49978
G1 X53.867 Y150.895 E24.53041
G1 X53.521 Y150.042 E24.56103
G1 X53.251 Y149.162 E24.59164
G1 X53.058 Y148.261 E24.62229
G1 X52.944 Y147.348 E24.65289
G1 X52.913 Y146.777 E24.67191
G1 X52.9 Y146.158 E24.6925
G1 X52.901 Y89.031 E26.59255
G0 F6000 X53.301 Y89.036
G1 F1200 X53.31 Y88.371 E26.61467
G1 X53.362 Y87.469 E26.64472
G1 X53.494 Y86.576 E26.67475
G1 X53.704 Y85.698 E26.70477
G1 X53.991 Y84.841 E26.73483
G1 X54.353 Y84.014 E26.76486
G1 X54.786 Y83.222 E26.79488
G1 X55.288 Y82.471 E26.82493
G1 X55.855 Y81.767 E26.85499
G1 X56.481 Y81.117 E26.88501
G1 X57.162 Y80.524 E26.91504
G1 X57.894 Y79.994 E26.9451
G1 X58.669 Y79.531 E26.97513
G1 X59.482 Y79.138 E27.00516
G1 X60.327 Y78.818 E27.03521
G1 X61.196 Y78.575 E27.06522
G1 X62.084 Y78.409 E27.09527
G1 X63.223 Y78.313 E27.13329
G1 X63.83 Y78.3 E27.15348
G1 X170.939 Y78.301 E30.71594
G1 X171.637 Y78.311 E30.73916
G1 X172.539 Y78.364 E30.76921
G1 X173.432 Y78.496 E30.79924
G1 X174.31 Y78.707 E30.82927
G1 X175.166 Y78.995 E30.85931
G1 X175.993 Y79.357 E30.88933
G1 X176.785 Y79.792 E30.91939
G1 X177.536 Y80.294 E30.94943
G1 X178.239 Y80.861 E30.97947
G1 X178.889 Y81.488 E31.00951
G1 X179.481 Y82.17 E31.03955
G1 X180.011 Y82.901 E31.06958
G1 X180.473 Y83.677 E31.09962
G1 X180.866 Y84.49 E31.12965
G1 X181.184 Y85.335 E31.15968
G1 X181.427 Y86.205 E31.18972
G1 X181.592 Y87.093 E31.21976
G1 X181.687 Y88.223 E31.25748
G1 X181.7 Y88.83 E31.27767
G1 X181.699 Y145.89 E33.1755
G1 X181.69 Y146.617 E33.19968
G1 X181.639 Y147.519 E33.22973
G1 X181.508 Y148.413 E33.25978
G1 X181.299 Y149.291 E33.2898
G1 X181.013 Y150.148 E33.31985
G1 X180.652 Y150.976 E33.34989
G1 X180.22 Y151.768 E33.3799
G1 X179.719 Y152.52 E33.40995
G1 X179.153 Y153.224 E33.43999
G1 X178.528 Y153.875 E33.47001
G1 X177.847 Y154.469 E33.50007
G1 X177.116 Y155 E33.53012
G1 X176.342 Y155.464 E33.56013
G1 X175.529 Y155.858 E33.59018
G1 X174.685 Y156.178 E33.6202
G1 X173.815 Y156.423 E33.65026
G1 X172.928 Y156.589 E33.68028
G1 X171.777 Y156.687 E33.7187
G1 X171.17 Y156.7 E33.73889
G1 X64.075 Y156.699 E37.30089
G1 X63.377 Y156.69 E37.3241
G1 X62.476 Y156.639 E37.35412
G1 X61.582 Y156.507 E37.38418
G1 X60.704 Y156.298 E37.41419
G1 X59.847 Y156.011 E37.44425
G1 X59.02 Y155.65 E37.47427
G1 X58.227 Y155.217 E37.50432
G1 X57.476 Y154.716 E37.53434
G1 X56.772 Y154.15 E37.56439
G1 X56.121 Y153.524 E37.59443
G1 X55.528 Y152.843 E37.62446
G1 X54.998 Y152.112 E37.65449
G1 X54.534 Y151.337 E37.68454
G1 X54.14 Y150.524 E37.71458
G1 X53.82 Y149.68 E37.74461
G1 X53.576 Y148.81 E37.77466
G1 X53.41 Y147.922 E37.80471
G1 X53.313 Y146.767 E37.84326
G1 X53.3 Y146.158 E37.86352
G1 X53.301 Y89.036 E39.7634
G1 F2400 E31.7634
;MESH:Caixa plaquinha valvula.stl
G0 F6000 X62.835 Y89.036
G0 X63.92 Y89.036
G0 X64.5 Y145.5
;TYPE:WALL-INNER
G1 F2400 E39.7634
G1 F1200 X170.5 Y145.5 E43.28898
G1 X170.5 Y117.5 E44.22026
G1 X170.5 Y89.5 E45.15154
G1 X64.5 Y89.5 E48.67712
G1 X64.5 Y145.5 E50.53969
G0 F6000 X64.1 Y145.9
G1 F1200 X170.9 Y145.9 E54.09187
G1 X170.9 Y117.5 E55.03646
G1 X170.9 Y89.1 E55.98104
G1 X64.1 Y89.1 E59.53323
G1 X64.1 Y145.9 E61.4224
G0 F6000 X63.7 Y146.3
;TYPE:WALL-OUTER
G1 F1200 X171.3 Y146.3 E65.00119
G1 X171.3 Y117.5 E65.95908
G1 X171.3 Y88.7 E66.91698
G1 X63.7 Y88.7 E70.49577
G1 X63.7 Y146.3 E72.41155
G0 F6000 X63.97 Y146.03
G0 X64.6 Y145.14
G0 X64.86 Y145.14
;TYPE:SKIN
G1 F1200 X170.14 Y145.14 E75.91318
G1 X170.14 Y117.5 E76.83249
G1 X170.14 Y89.86 E77.7518
G1 X64.86 Y89.86 E81.25342
G1 X64.86 Y145.14 E83.09204
G0 F6000 X65.177 Y144.939
G1 F1200 X65.06 Y144.821 E83.09757
G0 F6000 X65.06 Y144.256
G1 F1200 X65.743 Y144.939 E83.1297
G0 F6000 X66.308 Y144.939
G1 F1200 X65.06 Y143.69 E83.18842
G0 F6000 X65.06 Y143.124
G1 F1200 X66.874 Y144.939 E83.27377
G0 F6000 X67.44 Y144.939
G1 F1200 X65.06 Y142.559 E83.38572
G0 F6000 X65.06 Y141.993
G1 F1200 X68.005 Y144.939 E83.52427
G0 F6000 X68.571 Y144.939
G1 F1200 X65.06 Y141.427 E83.68944
G0 F6000 X65.06 Y140.862
G1 F1200 X69.137 Y144.939 E83.88121
G0 F6000 X69.703 Y144.939
G1 F1200 X65.06 Y140.296 E84.0996
G0 F6000 X65.06 Y139.73
G1 F1200 X70.268 Y144.939 E84.34459
G0 F6000 X70.834 Y144.939
G1 F1200 X65.06 Y139.164 E84.61621
G0 F6000 X65.06 Y138.599
G1 F1200 X71.4 Y144.939 E84.91442
G0 F6000 X71.965 Y144.939
G1 F1200 X65.06 Y138.033 E85.23923
G0 F6000 X65.06 Y137.467
G1 F1200 X72.531 Y144.939 E85.59067
G0 F6000 X73.097 Y144.939
G1 F1200 X65.06 Y136.902 E85.96871
G0 F6000 X65.06 Y136.336
G1 F1200 X73.662 Y144.939 E86.37334
G0 F6000 X74.228 Y144.939
G1 F1200 X65.06 Y135.77 E86.8046
G0 F6000 X65.06 Y135.205
G1 F1200 X74.794 Y144.939 E87.26246
G0 F6000 X75.359 Y144.939
G1 F1200 X65.06 Y134.639 E87.74691
G0 F6000 X65.06 Y134.073
G1 F1200 X75.925 Y144.939 E88.25799
G0 F6000 X76.491 Y144.939
G1 F1200 X65.06 Y133.508 E88.79567
G0 F6000 X65.06 Y132.942
G1 F1200 X77.056 Y144.939 E89.35995
G0 F6000 X77.622 Y144.939
G1 F1200 X65.06 Y132.376 E89.95085
G0 F6000 X65.06 Y131.811
G1 F1200 X78.188 Y144.939 E90.56835
G0 F6000 X78.754 Y144.939
G1 F1200 X65.06 Y131.245 E91.21248
G0 F6000 X65.06 Y130.679
G1 F1200 X79.319 Y144.939 E91.8832
G0 F6000 X79.885 Y144.939
G1 F1200 X65.06 Y130.114 E92.58052
G0 F6000 X65.06 Y129.548
G1 F1200 X80.451 Y144.939 E93.30447
G0 F6000 X81.016 Y144.939
G1 F1200 X65.06 Y128.982 E94.05501
G0 F6000 X65.06 Y128.416
G1 F1200 X81.582 Y144.939 E94.83218
G0 F6000 X82.148 Y144.939
G1 F1200 X65.06 Y127.851 E95.63595
G0 F6000 X65.06 Y127.285
G1 F1200 X82.713 Y144.939 E96.46631
G0 F6000 X83.279 Y144.939
G1 F1200 X65.06 Y126.719 E97.3233
G0 F6000 X65.06 Y126.154
G1 F1200 X83.845 Y144.939 E98.20689
G0 F6000 X84.41 Y144.939
G1 F1200 X65.06 Y125.588 E99.11708
G0 F6000 X65.06 Y125.022
G1 F1200 X84.976 Y144.939 E100.05389
G0 F6000 X85.542 Y144.939
G1 F1200 X65.06 Y124.457 E101.0173
G0 F6000 X65.06 Y123.891
G1 F1200 X86.107 Y144.939 E102.00731
G0 F6000 X86.673 Y144.939
G1 F1200 X65.06 Y123.325 E103.02395
G0 F6000 X65.06 Y122.76
G1 F1200 X87.239 Y144.939 E104.06718
G0 F6000 X87.804 Y144.939
G1 F1200 X65.06 Y122.194 E105.13701
G0 F6000 X65.06 Y121.628
G1 F1200 X88.37 Y144.939 E106.23346
G0 F6000 X88.936 Y144.939
G1 F1200 X65.06 Y121.063 E107.35652
G0 F6000 X65.06 Y120.497
G1 F1200 X89.502 Y144.939 E108.50619
G0 F6000 X90.067 Y144.939
G1 F1200 X65.06 Y119.931 E109.68247
G0 F6000 X65.06 Y119.365
G1 F1200 X90.633 Y144.939 E110.88537
G0 F6000 X91.199 Y144.939
G1 F1200 X65.06 Y118.8 E112.11487
G0 F6000 X65.06 Y118.234
G1 F1200 X91.764 Y144.939 E113.37097
G0 F6000 X92.33 Y144.939
G1 F1200 X65.06 Y117.668 E114.65369
G0 F6000 X65.06 Y117.103
G1 F1200 X92.896 Y144.939 E115.96301
G0 F6000 X93.461 Y144.939
G1 F1200 X65.06 Y116.537 E117.29893
G0 F6000 X65.06 Y115.971
G1 F1200 X94.027 Y144.939 E118.66147
G0 F6000 X94.593 Y144.939
G1 F1200 X65.06 Y115.406 E120.05061
G0 F6000 X65.06 Y114.84
G1 F1200 X95.158 Y144.939 E121.46635
G0 F6000 X95.724 Y144.939
G1 F1200 X65.06 Y114.274 E122.90872
G0 F6000 X65.06 Y113.709
G1 F1200 X96.29 Y144.939 E124.37768
G0 F6000 X96.855 Y144.939
G1 F1200 X65.06 Y113.143 E125.87324
G0 F6000 X65.06 Y112.577
G1 F1200 X97.421 Y144.939 E127.39543
G0 F6000 X97.987 Y144.939
G1 F1200 X65.06 Y112.012 E128.94421
G0 F6000 X65.06 Y111.446
G1 F1200 X98.553 Y144.939 E130.51962
G0 F6000 X99.118 Y144.939
G1 F1200 X65.06 Y110.88 E132.12163
G0 F6000 X65.06 Y110.315
G1 F1200 X99.684 Y144.939 E133.75023
G0 F6000 X100.25 Y144.939
G1 F1200 X65.06 Y109.749 E135.40546
G0 F6000 X65.06 Y109.183
G1 F1200 X100.815 Y144.939 E137.08729
G0 F6000 X101.381 Y144.939
G1 F1200 X65.06 Y108.617 E138.79575
G0 F6000 X65.06 Y108.052
G1 F1200 X101.947 Y144.939 E140.5308
G0 F6000 X102.512 Y144.939
G1 F1200 X65.06 Y107.486 E142.29245
G0 F6000 X65.06 Y106.92
G1 F1200 X103.078 Y144.939 E144.08072
G0 F6000 X103.644 Y144.939
G1 F1200 X65.06 Y106.355 E145.89559
G0 F6000 X65.06 Y105.789
G1 F1200 X104.209 Y144.939 E147.73707
G0 F6000 X104.775 Y144.939
G1 F1200 X65.06 Y105.223 E149.60516
G0 F6000 X65.06 Y104.658
G1 F1200 X105.341 Y144.939 E151.49986
G0 F6000 X105.906 Y144.939
G1 F1200 X65.06 Y104.092 E153.42115
G0 F6000 X65.06 Y103.526
G1 F1200 X106.472 Y144.939 E155.36907
G0 F6000 X107.038 Y144.939
G1 F1200 X65.06 Y102.961 E157.34358
G0 F6000 X65.06 Y102.395
G1 F1200 X107.603 Y144.939 E159.3447
G0 F6000 X108.169 Y144.939
G1 F1200 X65.06 Y101.829 E161.37244
G0 F6000 X65.06 Y101.264
G1 F1200 X108.735 Y144.939 E163.42678
G0 F6000 X109.301 Y144.939
G1 F1200 X65.06 Y100.698 E165.50774
G0 F6000 X65.06 Y100.132
G1 F1200 X109.866 Y144.939 E167.6153
G0 F6000 X110.432 Y144.939
G1 F1200 X65.06 Y99.566 E169.74948
G0 F6000 X65.06 Y99.001
G1 F1200 X110.998 Y144.939 E171.91026
G0 F6000 X111.563 Y144.939
G1 F1200 X65.06 Y98.435 E174.09765
G0 F6000 X65.06 Y97.869
G1 F1200 X112.129 Y144.939 E176.31165
G0 F6000 X112.695 Y144.939
G1 F1200 X65.06 Y97.304 E178.55226
G0 F6000 X65.06 Y96.738
G1 F1200 X113.26 Y144.939 E180.81946
G0 F6000 X113.826 Y144.939
G1 F1200 X65.06 Y96.172 E183.11329
G0 F6000 X65.06 Y95.607
G1 F1200 X114.392 Y144.939 E185.43371
G0 F6000 X114.957 Y144.939
G1 F1200 X65.06 Y95.041 E187.78074
G0 F6000 X65.06 Y94.475
G1 F1200 X115.523 Y144.939 E190.15439
G0 F6000 X116.089 Y144.939
G1 F1200 X65.06 Y93.91 E192.55463
G0 F6000 X65.06 Y93.344
G1 F1200 X116.654 Y144.939 E194.98148
G0 F6000 X117.22 Y144.939
G1 F1200 X65.06 Y92.778 E197.43495
G0 F6000 X65.06 Y92.213
G1 F1200 X117.786 Y144.939 E199.91502
G0 F6000 X118.351 Y144.939
G1 F1200 X65.06 Y91.647 E202.42169
G0 F6000 X65.06 Y91.081
G1 F1200 X118.917 Y144.939 E204.95498
G0 F6000 X119.483 Y144.939
G1 F1200 X65.06 Y90.516 E207.51487
G0 F6000 X65.169 Y90.059
G1 F1200 X120.049 Y144.939 E210.09626
G0 F6000 X120.614 Y144.939
G1 F1200 X65.735 Y90.059 E212.67762
G0 F6000 X66.301 Y90.059
G1 F1200 X121.18 Y144.939 E215.25899
G0 F6000 X121.746 Y144.939
G1 F1200 X66.866 Y90.059 E217.84037
G0 F6000 X67.432 Y90.059
G1 F1200 X122.311 Y144.939 E220.42174
G0 F6000 X122.877 Y144.939
G1 F1200 X67.998 Y90.059 E223.0031
G0 F6000 X68.563 Y90.059
G1 F1200 X123.443 Y144.939 E225.58449
